assets/People hugging/Flat/people_hugging_flat.svg

<svg width="32" height="32" viewBox="0 0 32 32" fill="none" xmlns="http://www.w3.org/2000/svg">
<path d="M18.9201 15.84H8.38008V30H18.9201V15.84Z" fill="#321B41"/>
<path d="M17.5801 5.36001C17.7062 4.77484 17.9499 4.2214 18.2964 3.73325C18.6429 3.24509 19.0849 2.8324 19.5957 2.52021C20.1064 2.20802 20.6753 2.00283 21.2677 1.91709C21.8602 1.83135 22.4639 1.86685 23.0422 2.02143C23.6205 2.17601 24.1614 2.44645 24.632 2.81634C25.1027 3.18624 25.4933 3.64788 25.7802 4.17328C26.0671 4.69867 26.2442 5.27686 26.3009 5.87279C26.3576 6.46871 26.2927 7.06994 26.1101 7.64001L25.3701 10.39C25.1424 11.242 24.6776 12.0119 24.0297 12.6102C23.3818 13.2085 22.5775 13.6107 21.7101 13.77C21.1144 13.8751 20.503 13.8481 19.9189 13.6908C19.3349 13.5336 18.7925 13.2499 18.3301 12.86C17.6581 12.2901 17.1614 11.5414 16.8976 10.7007C16.6339 9.85992 16.614 8.96164 16.8401 8.11001L17.5801 5.36001Z" fill="#6B438B"/>
<path d="M17.2921 12C17.4259 11.6938 17.5001 11.3556 17.5001 11C17.5001 9.61929 16.3808 8.5 15.0001 8.5H7.15153C4.1833 8.5 3.01771 12.3497 5.48742 13.9962L7.13763 15.0963L8.62204 17.4469L10.9931 17.6666L14.0001 19.6713V30H28.0001V19C28.0001 15.134 24.8661 12 21.0001 12H17.2921Z" fill="#8D65C5"/>
<path d="M17.9999 5.36001C17.8908 4.7588 17.6582 4.18674 17.3168 3.67996C16.9754 3.17318 16.5327 2.74269 16.0165 2.41567C15.5003 2.08864 14.922 1.87219 14.318 1.77999C13.7139 1.68778 13.0973 1.72182 12.5071 1.87995C11.9169 2.03808 11.3658 2.31687 10.8888 2.69872C10.4118 3.08057 10.0191 3.55718 9.73559 4.09845C9.45206 4.63973 9.28384 5.23391 9.24155 5.84348C9.19927 6.45305 9.28383 7.06477 9.4899 7.64001L10.2299 10.39C10.4587 11.2414 10.9239 12.0107 11.5715 12.6088C12.2192 13.207 13.023 13.6095 13.8899 13.77C14.4871 13.8745 15.1 13.8472 15.6856 13.6901C16.2712 13.5329 16.8153 13.2496 17.2799 12.86C17.9511 12.2897 18.4466 11.5405 18.7086 10.6996C18.9706 9.85868 18.9884 8.96064 18.7599 8.11001L17.9999 5.36001Z" fill="#533566"/>
<path d="M20.3999 18.34C19.8853 18.3376 19.3877 18.1557 18.9928 17.8257C18.598 17.4956 18.3307 17.0381 18.2371 16.5321C18.1435 16.0261 18.2294 15.5032 18.48 15.0538C18.7306 14.6043 19.1302 14.2564 19.6099 14.07L25.4799 11.81C26.02 11.6271 26.6098 11.6599 27.1262 11.9017C27.6426 12.1435 28.0456 12.5755 28.2509 13.1075C28.4561 13.6394 28.4479 14.2301 28.2278 14.7562C28.0077 15.2822 27.5929 15.7028 27.0699 15.93L21.1999 18.19C20.9448 18.2889 20.6736 18.3398 20.3999 18.34Z" fill="#533566"/>
<path d="M10.0001 22.43H17.6701C17.9664 22.4287 18.2601 22.4859 18.5342 22.5984C18.8084 22.7109 19.0576 22.8764 19.2676 23.0855C19.4776 23.2945 19.6442 23.543 19.7579 23.8167C19.8716 24.0903 19.9301 24.3837 19.9301 24.68C19.9196 25.2592 19.6822 25.8111 19.2688 26.2169C18.8555 26.6228 18.2994 26.8501 17.7201 26.85H9.72011C9.05812 26.8501 8.40488 26.6988 7.81037 26.4076C7.21586 26.1164 6.69584 25.6931 6.29011 25.17C5.8817 24.6484 5.59965 24.0393 5.46606 23.3904C5.33247 22.7415 5.35097 22.0705 5.52011 21.43L7.13776 15.086L10.9948 17.6538L9.85011 22.24C9.84381 22.2627 9.84295 22.2866 9.84761 22.3097C9.85226 22.3329 9.86231 22.3546 9.87692 22.3731C9.89153 22.3916 9.9103 22.4064 9.9317 22.4163C9.95311 22.4262 9.97654 22.4309 10.0001 22.43Z" fill="#533566"/>
</svg>

<svg xmlns="http://www.w3.org/2000/svg" width="32" height="32" fill="none"><path fill="#321B41" d="M18.92 15.84H8.38V30h10.54V15.84Z"/><path fill="#6B438B" d="M17.58 5.36a4.419 4.419 0 0 1 8.2-1.187 4.42 4.42 0 0 1 .33 3.467l-.74 2.75a4.66 4.66 0 0 1-3.66 3.38 4.129 4.129 0 0 1-3.38-.91 4.661 4.661 0 0 1-1.49-4.75l.74-2.75Z"/><path fill="#8D65C5" d="M17.292 12A2.5 2.5 0 0 0 15 8.5H7.152c-2.969 0-4.134 3.85-1.665 5.496l1.65 1.1 1.485 2.35 2.371.22L14 19.672V30h14V19a7 7 0 0 0-7-7h-3.708Z"/><path fill="#533566" d="M18 5.36a4.42 4.42 0 1 0-8.51 2.28l.74 2.75a4.67 4.67 0 0 0 3.66 3.38 4.162 4.162 0 0 0 3.39-.91 4.65 4.65 0 0 0 1.48-4.75L18 5.36ZM20.4 18.34a2.21 2.21 0 0 1-.79-4.27l5.87-2.26a2.21 2.21 0 0 1 1.59 4.12l-5.87 2.26c-.255.099-.526.15-.8.15ZM10 22.43h7.67a2.25 2.25 0 0 1 2.26 2.25 2.21 2.21 0 0 1-2.21 2.17h-8a4.34 4.34 0 0 1-3.43-1.68 4.29 4.29 0 0 1-.77-3.74l1.618-6.344 3.857 2.568L9.85 22.24a.15.15 0 0 0 .15.19Z"/></svg>
